docs/.gitbook/assets/icon-speaker-off-16@light.svg

<svg width="32" height="32" viewBox="0 0 16 16" fill="none" xmlns="http://www.w3.org/2000/svg">
<rect x="0" y="0" width="16" height="16" fill="#fff"/>
<path fill-rule="evenodd" clip-rule="evenodd" d="M2.26762 1.17574C2.58479 0.90932 3.05788 0.950458 3.3243 1.26762L6.45951 5.00002H7.98962C8.29576 5.00002 8.59126 4.88767 8.82007 4.68428L12.7517 1.18946C12.9725 0.993244 13.2878 0.944848 13.5573 1.06584C13.8267 1.18683 14 1.45467 14 1.75002V14.25C14 14.5652 13.8029 14.8468 13.5067 14.9547C13.2105 15.0626 12.8785 14.9738 12.6757 14.7324L5.53574 6.23241L2.17574 2.23241C1.90932 1.91525 1.95046 1.44216 2.26762 1.17574ZM7.71951 6.50002L12.5 12.1911V3.42015L9.81662 5.80539C9.31323 6.25285 8.66313 6.50002 7.98962 6.50002H7.71951ZM2.75002 5.00002C3.16423 5.00002 3.50002 5.3358 3.50002 5.75002V9.25002C3.50002 9.38809 3.61195 9.50002 3.75002 9.50002H6.25002C6.66423 9.50002 7.00002 9.8358 7.00002 10.25C7.00002 10.6642 6.66423 11 6.25002 11H3.75002C2.78352 11 2.00002 10.2165 2.00002 9.25002V5.75002C2.00002 5.3358 2.3358 5.00002 2.75002 5.00002Z" fill="#000"/>
</svg>

<svg xmlns="http://www.w3.org/2000/svg" width="32" height="32" fill="none" viewBox="0 0 16 16"><path fill="#fff" d="M0 0h16v16H0z"/><path fill="#000" fill-rule="evenodd" d="M2.268 1.176a.75.75 0 0 1 1.056.092L6.46 5h1.53c.306 0 .601-.112.83-.316l3.932-3.495A.75.75 0 0 1 14 1.75v12.5a.75.75 0 0 1-1.324.482l-7.14-8.5-3.36-4a.75.75 0 0 1 .092-1.056M7.72 6.5l4.78 5.691v-8.77L9.817 5.804A2.75 2.75 0 0 1 7.99 6.5zM2.75 5a.75.75 0 0 1 .75.75v3.5c0 .138.112.25.25.25h2.5a.75.75 0 1 1 0 1.5h-2.5A1.75 1.75 0 0 1 2 9.25v-3.5A.75.75 0 0 1 2.75 5" clip-rule="evenodd"/></svg>
